frontend/src/assets/icons/camera-plus.svg

<svg width="24" height="24" viewBox="0 0 24 24" fill="none" xmlns="http://www.w3.org/2000/svg">
<g id="camera-plus">
<path id="Icon" d="M22 11.5V14.6C22 16.8402 22 17.9603 21.564 18.816C21.1805 19.5686 20.5686 20.1805 19.816 20.564C18.9603 21 17.8402 21 15.6 21H8.4C6.15979 21 5.03969 21 4.18404 20.564C3.43139 20.1805 2.81947 19.5686 2.43597 18.816C2 17.9603 2 16.8402 2 14.6V9.4C2 7.15979 2 6.03969 2.43597 5.18404C2.81947 4.43139 3.43139 3.81947 4.18404 3.43597C5.03969 3 6.15979 3 8.4 3H12.5M19 8V2M16 5H22M16 12C16 14.2091 14.2091 16 12 16C9.79086 16 8 14.2091 8 12C8 9.79086 9.79086 8 12 8C14.2091 8 16 9.79086 16 12Z" stroke="black" stroke-width="2" stroke-linecap="round" stroke-linejoin="round"/>
</g>
</svg>

<svg xmlns="http://www.w3.org/2000/svg" width="24" height="24" fill="none" viewBox="0 0 24 24">
  <path stroke="#000" stroke-linecap="round" stroke-linejoin="round" stroke-width="2" d="M22 11.5v3.1c0 2.24 0 3.36-.436 4.216a4 4 0 0 1-1.748 1.748C18.96 21 17.84 21 15.6 21H8.4c-2.24 0-3.36 0-4.216-.436a4 4 0 0 1-1.748-1.748C2 17.96 2 16.84 2 14.6V9.4c0-2.24 0-3.36.436-4.216a4 4 0 0 1 1.748-1.748C5.04 3 6.16 3 8.4 3h4.1M19 8V2m-3 3h6m-6 7a4 4 0 1 1-8 0 4 4 0 0 1 8 0Z"/>
</svg>
